img/icons/mime/large/dvi.svg

<svg height="140.9" width="125.3" xmlns="http://www.w3.org/2000/svg" xmlns:xlink="http://www.w3.org/1999/xlink"><linearGradient id="a" gradientTransform="matrix(.939922 0 0 .896911 -12.081733 -3.352424)" gradientUnits="userSpaceOnUse" x1="24" x2="73" y1="16.4" y2="73.4"><stop offset="0" stop-color="#fff"/><stop offset="1" stop-color="#fff" stop-opacity="0"/></linearGradient><rect fill="none" height="133.4" rx="22.9" stroke="#000" stroke-linejoin="round" stroke-opacity=".5" stroke-width="7.5" width="117.8" x="3.8" y="3.8"/><rect fill="#bab5ab" height="133.4" rx="22.9" stroke="#000" stroke-width="3.8" width="117.8" x="3.6" y="3.7"/><g fill="#fff"><path d="m100.3 132.6h-75.7c-11.6 0-17.3-5.7-17.3-17.4 0 0 27.6-66.5 110.4-76.6v76.6c0 11.7-5.7 17.4-17.4 17.4z" fill-opacity=".3"/><rect height="69.5" rx="11.1" stroke="#000" stroke-width="5.6" width="92.8" x="15.7" y="15.7"/><path d="m99.6 125.4h-6.7v-31.2h6.7zm-43-31.2h7.7l9.5 24.3h.1l9.8-24.3h7.7l-14.5 31.2h-6.9zm-32.6 0h16.6c4.2 0 7.3 1.4 9.5 4 2.2 2.7 3.3 6.6 3.3 11.6s-1.1 8.8-3.3 11.5c-2.1 2.7-5.3 4.1-9.5 4.1h-16.6zm6.5 25.8h7.9c2.6 0 4.6-.8 5.8-2.5 1.3-1.7 1.9-4.3 1.9-7.7s-.6-6-1.8-7.7-3.1-2.5-5.9-2.5h-7.9z"/></g><path d="m100.3 126h-6.7v-31.1h6.7zm-43-31.1h7.7l9.4 24.3h.2l9.8-24.3h7.7l-14.5 31.1h-6.9zm-32.6 0h16.5c4.2 0 7.4 1.3 9.6 4s3.3 6.5 3.3 11.6c0 5-1.1 8.8-3.3 11.5s-5.3 4-9.6 4h-16.5zm6.5 25.8h7.9c2.6 0 4.5-.8 5.8-2.5 1.2-1.7 1.9-4.3 1.9-7.7 0-3.5-.6-6-1.8-7.7s-3.2-2.5-5.9-2.5h-7.9zm-2.3-62.8 13.3-31.2h6.8l13.4 31.2h-7.2l-3-7.6h-13l-3.2 7.6zm16.7-23.6-4.5 11.1h9.1zm26.3 39.7v-31.1h5.9v8.9h7.1c3.3 0 6 1 8 2.9.8.9 1.5 2.1 2 3.5.6 1.4.8 3 .8 4.7 0 3.7-.9 6.4-2.8 8.3-1.8 1.9-4.5 2.8-8 2.8zm5.9-4.6h6.1c1.7 0 3-.6 4-1.8 1.1-1.1 1.6-2.7 1.6-4.7 0-1.9-.5-3.5-1.5-4.7-.9-1.1-2.3-1.7-4.1-1.7h-6.1z"/><path d="m24.6 7.3h75.7c11.7 0 17.4 5.7 17.4 17.4 0 0-79.3.9-110.4 91.3v-91.3c0-10.3 7-17.4 17.3-17.4z" fill="url(#a)"/></svg>

<svg xmlns:svg="http://www.w3.org/2000/svg" xmlns="http://www.w3.org/2000/svg" xmlns:xlink="http://www.w3.org/1999/xlink" height="140.9" width="125.3" id="svg1" version="1">
<style>
.s0{
  stop-color:#46a046;
  stop-opacity:1;
}
.s1{
  stop-color:#df421e;
  stop-opacity:1;
}
.s2{
  stop-color:#ada7c8;
  stop-opacity:1;
}
.s3{
  stop-color:#eed680;
  stop-opacity:1;
}
.s4{
  font-family:Trek;
  font-size:40;
  stroke-width:1;
}

</style>  <metadata id="metadata15"/>
  <defs id="defs3">
    <linearGradient id="linearGradient3587">
      <stop offset="0" id="stop3589" style="stop-color:#efe0cd;stop-opacity:0.6"/>
      <stop offset="1" id="stop3591" style="stop-color:#cececd;stop-opacity:0.2"/>
    </linearGradient>
    <linearGradient id="linearGradient2832">
      <stop id="stop2834" offset="0" style="stop-color:#ffffff;stop-opacity:1"/>
      <stop id="stop2836" offset="1" style="stop-color:#ffffff;stop-opacity:0"/>
    </linearGradient>
    <linearGradient id="linearGradient839">
      <stop id="stop840" offset="0" class="s0"/>
      <stop id="stop841" offset="0.4" class="s1"/>
      <stop id="stop842" offset="0.7" class="s2"/>
      <stop id="stop843" offset="1" class="s3"/>
    </linearGradient>
    <linearGradient y2="0.5" x2="1" y1="0.5" x1="0" id="linearGradient836" xlink:href="#linearGradient839"/>
    <linearGradient gradientUnits="userSpaceOnUse" y2="73.4" x2="73" y1="16.4" x1="24" gradientTransform="matrix(0.939922,0,0,0.896911,-12.081733,-3.3524237)" id="linearGradient2830" xlink:href="#linearGradient2832"/>
    <linearGradient xlink:href="#linearGradient1700" id="linearGradient1407" gradientUnits="userSpaceOnUse" gradientTransform="matrix(0.777129,0,0,0.894628,-162.4688,12.76856)" x1="111.3" y1="124.3" x2="107.3" y2="93.7"/>
    <linearGradient xlink:href="#linearGradient1700" id="linearGradient1390" gradientUnits="userSpaceOnUse" gradientTransform="matrix(0.777129,0,0,0.894628,-2.922179,10.43077)" x1="111.3" y1="124.3" x2="107.3" y2="93.7"/>
    <linearGradient id="linearGradient1350">
      <stop id="stop1352" offset="0" class="s0"/>
      <stop id="stop1354" offset="0.4" class="s1"/>
      <stop id="stop1356" offset="0.7" class="s2"/>
      <stop id="stop1358" offset="1" class="s3"/>
    </linearGradient>
    <linearGradient y2="0.5" x2="1" y1="0.5" x1="0" id="linearGradient1360" xlink:href="#linearGradient839"/>
    <linearGradient gradientUnits="userSpaceOnUse" y2="88" x2="128.7" y1="121.7" x1="123.5" gradientTransform="matrix(0.870364,0,0,1.001961,4.612015,4.886798)" id="linearGradient1362" xlink:href="#linearGradient1700"/>
    <linearGradient y2="0.5" x2="1" y1="0.5" x1="0" id="linearGradient1363" xlink:href="#linearGradient839"/>
    <linearGradient id="linearGradient1353">
      <stop id="stop1355" offset="0" class="s0"/>
      <stop id="stop1357" offset="0.4" class="s1"/>
      <stop id="stop1359" offset="0.7" class="s2"/>
      <stop id="stop1361" offset="1" class="s3"/>
    </linearGradient>
    <linearGradient id="linearGradient1700">
      <stop id="stop1701" offset="0" style="stop-color:#000000;stop-opacity:0.7"/>
      <stop id="stop1702" offset="1" style="stop-color:#000000;stop-opacity:0"/>
    </linearGradient>
    <linearGradient xlink:href="#linearGradient839" id="linearGradient1427" x1="0" y1="0.5" x2="1" y2="0.5"/>
    <linearGradient id="linearGradient1417">
      <stop offset="0" id="stop1419" class="s0"/>
      <stop offset="0.4" id="stop1421" class="s1"/>
      <stop offset="0.7" id="stop1423" class="s2"/>
      <stop offset="1" id="stop1425" class="s3"/>
    </linearGradient>
    <linearGradient y2="0.5" x2="1" y1="0.5" x1="0" id="linearGradient1381" xlink:href="#linearGradient839"/>
    <linearGradient id="linearGradient1371">
      <stop id="stop1373" offset="0" class="s0"/>
      <stop id="stop1375" offset="0.4" class="s1"/>
      <stop id="stop1377" offset="0.7" class="s2"/>
      <stop id="stop1379" offset="1" class="s3"/>
    </linearGradient>
    <linearGradient xlink:href="#linearGradient839" id="linearGradient1374" x1="0" y1="0.5" x2="1" y2="0.5"/>
    <linearGradient id="linearGradient1364">
      <stop offset="0" id="stop1366" class="s0"/>
      <stop offset="0.4" id="stop1368" class="s1"/>
      <stop offset="0.7" id="stop1370" class="s2"/>
      <stop offset="1" id="stop1372" class="s3"/>
    </linearGradient>
    <linearGradient xlink:href="#linearGradient839" id="linearGradient1382" x1="0" y1="0.5" x2="1" y2="0.5"/>
    <linearGradient id="linearGradient1370">
      <stop offset="0" id="stop1374" class="s0"/>
      <stop offset="0.4" id="stop1376" class="s1"/>
      <stop offset="0.7" id="stop1378" class="s2"/>
      <stop offset="1" id="stop1380" class="s3"/>
    </linearGradient>
  </defs>
  <rect rx="22.9" ry="22.9" y="3.8" x="3.8" height="133.4" width="117.8" id="rect834" style="fill:none;stroke-linejoin:round;stroke-opacity:0.5;stroke-width:7.5;stroke:#000"/>
  <rect rx="22.9" ry="22.9" y="3.7" x="3.6" height="133.4" width="117.8" id="rect828" style="fill:#bab5ab;stroke-width:3.8;stroke:#000"/>
  <path id="path2838" d="M100.3 132.6L24.6 132.6C13 132.6 7.3 126.9 7.3 115.2 7.3 115.2 34.9 48.7 117.7 38.6L117.7 115.2C117.7 126.9 112 132.6 100.3 132.6z" style="fill-opacity:0.3;fill:#fff"/>
  <rect id="rect849" width="92.8" height="69.5" ry="11.1" x="15.7" y="15.7" rx="11.1" style="fill:#fff;stroke-width:5.6;stroke:#000"/>
  <path d="M99.6 125.4L92.9 125.4 92.9 94.2 99.6 94.2 99.6 125.4zM56.6 94.2L64.3 94.2 73.8 118.5 73.9 118.5 83.7 94.2 91.4 94.2 76.9 125.4 70 125.4 56.6 94.2zM24 94.2L40.6 94.2C44.8 94.2 47.9 95.6 50.1 98.2 52.3 100.9 53.4 104.8 53.4 109.8 53.4 114.8 52.3 118.6 50.1 121.3 48 124 44.8 125.4 40.6 125.4L24 125.4 24 94.2zM30.5 120L38.4 120C41 120 43 119.2 44.2 117.5 45.5 115.8 46.1 113.2 46.1 109.8 46.1 106.4 45.5 103.8 44.3 102.1 43.1 100.4 41.2 99.6 38.4 99.6L30.5 99.6 30.5 120z" id="path1400" style="fill:#fff;font-family:Trek;font-size:40;stroke-width:1"/>
  <path d="M100.3 126L93.6 126 93.6 94.9 100.3 94.9 100.3 126zM57.3 94.9L65 94.9 74.4 119.2 74.6 119.2 84.4 94.9 92.1 94.9 77.6 126 70.7 126 57.3 94.9zM24.7 94.9L41.2 94.9C45.4 94.9 48.6 96.2 50.8 98.9 53 101.6 54.1 105.4 54.1 110.5 54.1 115.5 53 119.3 50.8 122 48.6 124.7 45.5 126 41.2 126L24.7 126 24.7 94.9zM31.2 120.7L39.1 120.7C41.7 120.7 43.6 119.9 44.9 118.2 46.1 116.5 46.8 113.9 46.8 110.5 46.8 107 46.2 104.5 45 102.8 43.8 101.1 41.8 100.3 39.1 100.3L31.2 100.3 31.2 120.7zM28.9 57.9L42.2 26.7 49 26.7 62.4 57.9 55.2 57.9 52.2 50.3 39.2 50.3 36 57.9 28.9 57.9zM45.6 34.3L41.1 45.4 50.2 45.4 45.6 34.3zM71.9 74L71.9 42.9 77.8 42.9 77.8 51.8 84.9 51.8C88.2 51.8 90.9 52.8 92.9 54.7 93.7 55.6 94.4 56.8 94.9 58.2 95.5 59.6 95.7 61.2 95.7 62.9 95.7 66.6 94.8 69.3 92.9 71.2 91.1 73.1 88.4 74 84.9 74L71.9 74zM77.8 69.4L83.9 69.4C85.6 69.4 86.9 68.8 87.9 67.6 89 66.5 89.5 64.9 89.5 62.9 89.5 61 89 59.4 88 58.2 87.1 57.1 85.7 56.5 83.9 56.5L77.8 56.5 77.8 69.4z" id="path883" class="s4"/>
  <path id="rect2063" d="M24.6 7.3L100.3 7.3C112 7.3 117.7 13 117.7 24.7 117.7 24.7 38.4 25.6 7.3 116L7.3 24.7C7.3 14.4 14.3 7.3 24.6 7.3z" fill="url(#linearGradient2830)"/>
</svg>
